svg/fluentui-system-icons/ic_fluent_add_square_24_regular.svg

<svg width="24" height="24" viewBox="0 0 24 24" fill="none" xmlns="http://www.w3.org/2000/svg">
<path d="M12 7C12.4142 7 12.75 7.33579 12.75 7.75V11.25H16.25C16.6642 11.25 17 11.5858 17 12C17 12.4142 16.6642 12.75 16.25 12.75H12.75V16.25C12.75 16.6642 12.4142 17 12 17C11.5858 17 11.25 16.6642 11.25 16.25V12.75H7.75C7.33579 12.75 7 12.4142 7 12C7 11.5858 7.33579 11.25 7.75 11.25H11.25V7.75C11.25 7.33579 11.5858 7 12 7ZM3 6.25C3 4.45507 4.45507 3 6.25 3H17.75C19.5449 3 21 4.45507 21 6.25V17.75C21 19.5449 19.5449 21 17.75 21H6.25C4.45507 21 3 19.5449 3 17.75V6.25ZM6.25 4.5C5.2835 4.5 4.5 5.2835 4.5 6.25V17.75C4.5 18.7165 5.2835 19.5 6.25 19.5H17.75C18.7165 19.5 19.5 18.7165 19.5 17.75V6.25C19.5 5.2835 18.7165 4.5 17.75 4.5H6.25Z" fill="#212121"/>
</svg>

<svg xmlns="http://www.w3.org/2000/svg" width="24" height="24"><path d="M12 7a.75.75 0 0 1 .75.75v3.5h3.5a.75.75 0 0 1 0 1.5h-3.5v3.5a.75.75 0 0 1-1.5 0v-3.5h-3.5a.75.75 0 0 1 0-1.5h3.5v-3.5A.75.75 0 0 1 12 7Zm-9-.75A3.25 3.25 0 0 1 6.25 3h11.5A3.25 3.25 0 0 1 21 6.25v11.5A3.25 3.25 0 0 1 17.75 21H6.25A3.25 3.25 0 0 1 3 17.75V6.25ZM6.25 4.5A1.75 1.75 0 0 0 4.5 6.25v11.5c0 .966.784 1.75 1.75 1.75h11.5a1.75 1.75 0 0 0 1.75-1.75V6.25a1.75 1.75 0 0 0-1.75-1.75H6.25Z"/></svg>
